apps/scalable/inkscape.svg

<svg xmlns="http://www.w3.org/2000/svg" style="isolation:isolate" width="256" height="256"><defs><clipPath id="a"><path d="M0 0h256v256H0z"/></clipPath></defs><g clip-path="url(#a)"><defs><filter id="b" width="400%" height="400%" x="-200%" y="-200%" color-interpolation-filters="sRGB" filterUnits="objectBoundingBox"><feGaussianBlur xmlns="http://www.w3.org/2000/svg" in="SourceGraphic" stdDeviation="4.294"/><feOffset xmlns="http://www.w3.org/2000/svg" dy="4" result="pf_100_offsetBlur"/><feFlood xmlns="http://www.w3.org/2000/svg" flood-opacity=".4"/><feComposite xmlns="http://www.w3.org/2000/svg" in2="pf_100_offsetBlur" operator="in" result="pf_100_dropShadow"/><feBlend xmlns="http://www.w3.org/2000/svg" in="SourceGraphic" in2="pf_100_dropShadow"/></filter></defs><g filter="url(#b)"><linearGradient id="c" x1=".5" x2=".5" y1="-.036" y2="1.036" gradientTransform="matrix(244.648 0 0 228.338 6.343 13.28)" gradientUnits="userSpaceOnUse"><stop offset="0%" stop-color="#4d4d4d"/><stop offset="98.696%" stop-color="#6c6c6c"/></linearGradient><path fill="url(#c)" d="M166.351 13.28c74.056 0 84.64 10.557 84.64 84.544v59.251c0 73.986-10.584 84.544-84.64 84.544H90.982c-74.056 0-84.639-10.558-84.639-84.544V97.824c0-73.987 10.583-84.544 84.639-84.544h75.369z"/></g><g filter="url(#d)"><path fill="#545454" d="M96.75 97l24.5-25.75 12.25.25 28 28.5-29.5 58.5-33.25-14.75-2-46.75z"/><path fill="#FFF" d="M126.965 68c-3.76-.008-7.483 1.36-10.181 4.121l-44.888 45.934c-15.167 18.782 10.321 16.597 21.248 22.006 3.919 4.007-15.024 6.964-11.104 10.974 3.919 4.007 23.7 7.719 27.626 11.725 3.92 4.006-8.022 8.255-4.103 12.262 3.92 4.006 12.984.212 14.682 9.46 1.209 6.609 16.337 2.84 23.735-2.573 3.92-4.01-7.499-3.632-3.58-7.638 9.747-9.968 18.823-3.623 22.157-13.61 1.648-4.935-14.349-7.609-10.423-11.616 11.278-6.585 50.257-10.873 31.762-29.367l-46.529-47.557c-2.845-2.731-6.642-4.113-10.402-4.121zm.402 4.372c2.684.015 5.361 1.02 7.287 2.971l17.759 18.036c1.684 1.721 1.661 5.054.719 6.013l-8.819-7.052-1.735 10.446-7.366-3.891-11.799 7.454-3.907-15.713-6.337 10.967h-9.691c-3.949 0-4.413-5.012-.825-8.601 6.269-6.766 13.462-13.663 17.371-17.659 1.965-2.008 4.659-2.985 7.343-2.971zm-21.327 70.174c1.2.745 19.345 4.432 23.779 5.167 1.537.325.448 1.909-1.671 2.978-4.778 1.27-27.955-8.145-22.108-8.145zm70.546 12.627c-3.651.126-7.248 1.991-8.241 5.488 0 2.279 16.79 3.773 16.79-.537-1.196-3.462-4.899-5.077-8.549-4.951zm-76.808 9.874a9.974 9.974 0 0 0-.863.015c-5.088.271-10.548 3.95-6.206 7.711 3.976 3.438 10.118-.855 11.96-5.654-1.054-1.399-2.897-2.018-4.891-2.068v-.004zm66.461.295c-5.125 4.598.576 9.263 5.628 6.293 1.126-1.143-.031-5.15-5.628-6.293z" opacity=".9"/></g><defs><filter id="d" width="400%" height="400%" x="-200%" y="-200%" color-interpolation-filters="sRGB" filterUnits="objectBoundingBox"><feGaussianBlur xmlns="http://www.w3.org/2000/svg" in="SourceGraphic" stdDeviation="4.294"/><feOffset xmlns="http://www.w3.org/2000/svg" dy="4" result="pf_100_offsetBlur"/><feFlood xmlns="http://www.w3.org/2000/svg" flood-opacity=".4"/><feComposite xmlns="http://www.w3.org/2000/svg" in2="pf_100_offsetBlur" operator="in" result="pf_100_dropShadow"/><feBlend xmlns="http://www.w3.org/2000/svg" in="SourceGraphic" in2="pf_100_dropShadow"/></filter></defs><path fill="#FFF" d="M5.676 126.116v29.626c0 73.986 10.584 84.543 84.639 84.543h75.37c74.055 0 84.639-10.557 84.639-84.543v-29.626H5.676z" opacity=".1"/><g opacity=".4"><linearGradient id="e" x1=".517" x2=".517" y2="1"><stop offset="0%" stop-color="#fff"/><stop offset="12.5%" stop-opacity=".098" stop-color="#fff"/><stop offset="92.5%" stop-opacity=".098"/><stop offset="100%" stop-opacity=".498"/></linearGradient><path fill="none" stroke="url(#e)" stroke-linecap="round" stroke-linejoin="round" stroke-width="4.077" d="M165.685 11.947c74.055 0 84.639 10.557 84.639 84.544v59.251c0 73.986-10.584 84.543-84.639 84.543h-75.37c-74.055 0-84.639-10.557-84.639-84.543V96.491c0-73.987 10.584-84.544 84.639-84.544h75.37z" vector-effect="non-scaling-stroke"/></g></g></svg>

<svg xmlns="http://www.w3.org/2000/svg" style="isolation:isolate" width="256" height="256" viewBox="0 0 256 256">
 <defs>
  <clipPath id="_clipPath_jdc5DoiJx4CYWuIsOhYGWEP5nMcjEKZm">
   <rect width="256" height="256"/>
  </clipPath>
 </defs>
 <g clip-path="url(#_clipPath_jdc5DoiJx4CYWuIsOhYGWEP5nMcjEKZm)">
  <defs>
   <filter id="Kc6FlU65OiVCqJTE5BBbNkbpxdfZGLJ2" width="400%" height="400%" x="-200%" y="-200%" color-interpolation-filters="sRGB" filterUnits="objectBoundingBox">
    <feGaussianBlur xmlns="http://www.w3.org/2000/svg" in="SourceGraphic" stdDeviation="4.294"/>
    <feOffset xmlns="http://www.w3.org/2000/svg" dx="0" dy="4" result="pf_100_offsetBlur"/>
    <feFlood xmlns="http://www.w3.org/2000/svg" flood-opacity=".4"/>
    <feComposite xmlns="http://www.w3.org/2000/svg" in2="pf_100_offsetBlur" operator="in" result="pf_100_dropShadow"/>
    <feBlend xmlns="http://www.w3.org/2000/svg" in="SourceGraphic" in2="pf_100_dropShadow" mode="normal"/>
   </filter>
  </defs>
  <g filter="url(#Kc6FlU65OiVCqJTE5BBbNkbpxdfZGLJ2)">
   <linearGradient id="_lgradient_0" x1=".5" x2=".5" y1="-.036" y2="1.036" gradientTransform="matrix(244.648,0,0,228.338,6.343,13.28)" gradientUnits="userSpaceOnUse">
    <stop offset="0%" style="stop-color:rgb(77,77,77)"/>
    <stop offset="98.696%" style="stop-color:rgb(108,108,108)"/>
   </linearGradient>
   <path fill="url(#_lgradient_0)" d="M 166.351 13.28 C 240.407 13.28 250.991 23.837 250.991 97.824 L 250.991 157.075 C 250.991 231.061 240.407 241.619 166.351 241.619 L 90.982 241.619 C 16.926 241.619 6.343 231.061 6.343 157.075 L 6.343 97.824 C 6.343 23.837 16.926 13.28 90.982 13.28 L 166.351 13.28 Z"/>
  </g>
  <g filter="url(#jXz1PygQlfRmjQwQVyurKjCor7FPlx5T)">
   <path fill="#545454" d="M 96.75 97 L 121.25 71.25 L 133.5 71.5 L 161.5 100 L 132 158.5 L 98.75 143.75 L 96.75 97 Z"/>
   <g opacity=".9">
    <path fill="#FFFFFF" d="M 126.965 68 C 123.205 67.992 119.482 69.36 116.784 72.121 L 71.896 118.055 C 56.729 136.837 82.217 134.652 93.144 140.061 C 97.063 144.068 78.12 147.025 82.04 151.035 C 85.959 155.042 105.74 158.754 109.666 162.76 C 113.586 166.766 101.644 171.015 105.563 175.022 C 109.483 179.028 118.547 175.234 120.245 184.482 C 121.454 191.091 136.582 187.322 143.98 181.909 C 147.9 177.899 136.481 178.277 140.4 174.271 C 150.147 164.303 159.223 170.648 162.557 160.661 C 164.205 155.726 148.208 153.052 152.134 149.045 C 163.412 142.46 202.391 138.172 183.896 119.678 L 137.367 72.121 C 134.522 69.39 130.725 68.008 126.965 68 Z M 127.367 72.372 C 130.051 72.387 132.728 73.392 134.654 75.343 L 152.413 93.379 C 154.097 95.1 154.074 98.433 153.132 99.392 L 144.313 92.34 L 142.578 102.786 L 135.212 98.895 L 123.413 106.349 L 119.506 90.636 L 113.169 101.603 L 103.478 101.603 C 99.529 101.603 99.065 96.591 102.653 93.002 C 108.922 86.236 116.115 79.339 120.024 75.343 C 121.989 73.335 124.683 72.358 127.367 72.372 Z M 106.04 142.546 C 107.24 143.291 125.385 146.978 129.819 147.713 C 131.356 148.038 130.267 149.622 128.148 150.691 C 123.37 151.961 100.193 142.546 106.04 142.546 Z M 176.586 155.173 C 172.935 155.299 169.338 157.164 168.345 160.661 C 168.345 162.94 185.135 164.434 185.135 160.124 C 183.939 156.662 180.236 155.047 176.586 155.173 L 176.586 155.173 Z M 99.778 165.047 C 99.493 165.04 99.205 165.044 98.915 165.062 C 93.827 165.333 88.367 169.012 92.709 172.773 C 96.685 176.211 102.827 171.918 104.669 167.119 C 103.615 165.72 101.772 165.101 99.778 165.051 L 99.778 165.047 Z M 166.239 165.342 C 161.114 169.94 166.815 174.605 171.867 171.635 C 172.993 170.492 171.836 166.485 166.239 165.342 Z"/>
   </g>
  </g>
  <defs>
   <filter id="jXz1PygQlfRmjQwQVyurKjCor7FPlx5T" width="400%" height="400%" x="-200%" y="-200%" color-interpolation-filters="sRGB" filterUnits="objectBoundingBox">
    <feGaussianBlur xmlns="http://www.w3.org/2000/svg" in="SourceGraphic" stdDeviation="4.294"/>
    <feOffset xmlns="http://www.w3.org/2000/svg" dx="0" dy="4" result="pf_100_offsetBlur"/>
    <feFlood xmlns="http://www.w3.org/2000/svg" flood-opacity=".4"/>
    <feComposite xmlns="http://www.w3.org/2000/svg" in2="pf_100_offsetBlur" operator="in" result="pf_100_dropShadow"/>
    <feBlend xmlns="http://www.w3.org/2000/svg" in="SourceGraphic" in2="pf_100_dropShadow" mode="normal"/>
   </filter>
  </defs>
  <g opacity=".1">
   <path fill="#FFFFFF" d="M 5.676 126.116 L 5.676 155.742 C 5.676 229.728 16.26 240.285 90.315 240.285 L 165.685 240.285 C 239.74 240.285 250.324 229.728 250.324 155.742 L 250.324 126.116 L 5.676 126.116 Z"/>
  </g>
  <g opacity=".4">
   <linearGradient id="_lgradient_1" x1=".517" x2=".517" y1="0" y2="1">
    <stop offset="0%" style="stop-color:rgb(255,255,255)"/>
    <stop offset="12.5%" stop-opacity=".098" style="stop-color:rgb(255,255,255)"/>
    <stop offset="92.5%" stop-opacity=".098" style="stop-color:rgb(0,0,0)"/>
    <stop offset="100%" stop-opacity=".498" style="stop-color:rgb(0,0,0)"/>
   </linearGradient>
   <path fill="none" stroke="url(#_lgradient_1)" stroke-linecap="round" stroke-linejoin="round" stroke-width="4.077" d="M 165.685 11.947 C 239.74 11.947 250.324 22.504 250.324 96.491 L 250.324 155.742 C 250.324 229.728 239.74 240.285 165.685 240.285 L 90.315 240.285 C 16.26 240.285 5.676 229.728 5.676 155.742 L 5.676 96.491 C 5.676 22.504 16.26 11.947 90.315 11.947 L 165.685 11.947 Z" vector-effect="non-scaling-stroke"/>
  </g>
 </g>
</svg>
